exported-svg/hash.svg

<svg height="24" viewBox="0 0 24 24" width="24" xmlns="http://www.w3.org/2000/svg"><path d="m14.6080342 15.0000441h-4.99384614l-.61724619 5.5552158c-.03049483.2744534-.27770422.4722209-.55215763.4417261-.27445342-.0304949-.47222093-.2777043-.44172611-.5521577l.60497603-5.4447842h-4.10803416c-.27614237 0-.5-.2238576-.5-.5s.22385763-.5.5-.5h4.21914527l.55555556-5h-4.77470083c-.27614237 0-.5-.22385763-.5-.5 0-.27614238.22385763-.5.5-.5h4.88581194l.61724616-5.55521577c.0304949-.27445341.2777042-.47222092.5521577-.4417261.2744534.03049482.4722209.27770421.4417261.55215763l-.6049761 5.44478424h4.9938461l.6172462-5.55521577c.0304949-.27445341.2777042-.47222092.5521577-.4417261.2744534.03049482.4722209.27770421.4417261.55215763l-.6049761 5.44478424h4.1080342c.2761424 0 .5.22385762.5.5 0 .27614237-.2238576.5-.5.5h-4.2191453l-.5555555 5h4.7747008c.2761424 0 .5.2238576.5.5s-.2238576.5-.5.5h-4.8858119l-.6172462 5.5552158c-.0304949.2744534-.2777042.4722209-.5521577.4417261-.2744534-.0304949-.4722209-.2777043-.4417261-.5521577zm.1111111-1 .5555555-5h-4.9938461l-.55555553 5z"/></svg>

<?xml version="1.0" encoding="UTF-8"?>
<svg width="24px" height="24px" viewBox="0 0 24 24" version="1.1" xmlns="http://www.w3.org/2000/svg" xmlns:xlink="http://www.w3.org/1999/xlink">
    <!-- Generator: Sketch 55.2 (78181) - https://sketchapp.com -->
    <title>hash</title>
    <desc>Created with Sketch.</desc>
    <g id="hash" stroke="none" stroke-width="1" fill="none" fill-rule="evenodd">
        <path d="M14.6080342,15.0000441 L9.61418806,15.0000441 L8.99694187,20.5552599 C8.96644704,20.8297133 8.71923765,21.0274808 8.44478424,20.996986 C8.17033082,20.9664911 7.97256331,20.7192817 8.00305813,20.4448283 L8.60803416,15.0000441 L4.5,15.0000441 C4.22385763,15.0000441 4,14.7761865 4,14.5000441 C4,14.2239017 4.22385763,14.0000441 4.5,14.0000441 L8.71914527,14.0000441 L9.27470083,9.0000441 L4.5,9.0000441 C4.22385763,9.0000441 4,8.77618647 4,8.5000441 C4,8.22390172 4.22385763,8.0000441 4.5,8.0000441 L9.38581194,8.0000441 L10.0030581,2.44482833 C10.033553,2.17037492 10.2807623,1.97260741 10.5552158,2.00310223 C10.8296692,2.03359705 11.0274367,2.28080644 10.9969419,2.55525986 L10.3919658,8.0000441 L15.3858119,8.0000441 L16.0030581,2.44482833 C16.033553,2.17037492 16.2807623,1.97260741 16.5552158,2.00310223 C16.8296692,2.03359705 17.0274367,2.28080644 16.9969419,2.55525986 L16.3919658,8.0000441 L20.5,8.0000441 C20.7761424,8.0000441 21,8.22390172 21,8.5000441 C21,8.77618647 20.7761424,9.0000441 20.5,9.0000441 L16.2808547,9.0000441 L15.7252992,14.0000441 L20.5,14.0000441 C20.7761424,14.0000441 21,14.2239017 21,14.5000441 C21,14.7761865 20.7761424,15.0000441 20.5,15.0000441 L15.6141881,15.0000441 L14.9969419,20.5552599 C14.966447,20.8297133 14.7192377,21.0274808 14.4447842,20.996986 C14.1703308,20.9664911 13.9725633,20.7192817 14.0030581,20.4448283 L14.6080342,15.0000441 Z M14.7191453,14.0000441 L15.2747008,9.0000441 L10.2808547,9.0000441 L9.72529917,14.0000441 L14.7191453,14.0000441 Z" id="hash-combined" fill="#000000" fill-rule="nonzero"></path>
    </g>
</svg>
